X: 5236
T: Broken Gold Ring, The
R: jig
M: 6/8
K: Dmajor
|:A|dAF AFE|DBA D2 A|def e^de|fdB B2 c|
d2 F AFE|DBA DF/G/A|d2 f e^de|fdc d2:|
|:B|A^GA dcd|B^AB dAF|DEF GFE|ADF E2 B|
A2 A dcd|B^AB d2 F|D2 F GEG|FDD D2:|

